usr/share/icons/biglinux-icons-material/16/actions/vcs-merge.svg

<svg viewBox="0 0 16 16" xmlns="http://www.w3.org/2000/svg">
    <style type="text/css" id="current-color-scheme">
        .ColorScheme-Text {
            color:#363636;
        }
    </style>
    <g class="ColorScheme-Text" fill="currentColor">
        <path d="m3.5 11a1.5 1.5 0 0 0 -1.5 1.5 1.5 1.5 0 0 0 1.5 1.5 1.5 1.5 0 0 0 1.5-1.5 1.5 1.5 0 0 0 -1.5-1.5zm-.0117188 1a.5.5 0 0 1 .0117188 0 .5.5 0 0 1 .5.5.5.5 0 0 1 -.5.5.5.5 0 0 1 -.5-.5.5.5 0 0 1 .4882812-.5z"/>
        <path d="m11.5 11a1.5 1.5 0 0 0 -1.5 1.5 1.5 1.5 0 0 0 1.5 1.5 1.5 1.5 0 0 0 1.5-1.5 1.5 1.5 0 0 0 -1.5-1.5zm-.01172 1a.5.5 0 0 1 .01172 0 .5.5 0 0 1 .5.5.5.5 0 0 1 -.5.5.5.5 0 0 1 -.5-.5.5.5 0 0 1 .488281-.5z"/>
        <path d="m7.5 2a1.5 1.5 0 0 0 -1.5 1.5 1.5 1.5 0 0 0 1.5 1.5 1.5 1.5 0 0 0 1.5-1.5 1.5 1.5 0 0 0 -1.5-1.5zm-.0117188 1a.5.5 0 0 1 .0117188 0 .5.5 0 0 1 .5.5.5.5 0 0 1 -.5.5.5.5 0 0 1 -.5-.5.5.5 0 0 1 .4882812-.5z"/>
        <path d="m7 4v3h-2a2 2 0 0 0 -.0488281 0 2 2 0 0 0 -1.9511719 2v3h1v-3a1 1 0 0 1 1-1h5a1 1 0 0 1 1 1v3h1v-3a2 2 0 0 0 -1.951172-2 2 2 0 0 0 -.048828 0h-2v-3z"/>
    </g>
</svg>

<svg xmlns="http://www.w3.org/2000/svg" viewBox="0 0 16 16"><g fill="currentColor" style="color:#dedede"><path d="M3.5 11A1.5 1.5 0 0 0 2 12.5 1.5 1.5 0 0 0 3.5 14 1.5 1.5 0 0 0 5 12.5 1.5 1.5 0 0 0 3.5 11zm-.012 1a.5.5 0 0 1 .012 0 .5.5 0 0 1 .5.5.5.5 0 0 1-.5.5.5.5 0 0 1-.5-.5.5.5 0 0 1 .488-.5zM11.5 11a1.5 1.5 0 0 0-1.5 1.5 1.5 1.5 0 0 0 1.5 1.5 1.5 1.5 0 0 0 1.5-1.5 1.5 1.5 0 0 0-1.5-1.5zm-.012 1a.5.5 0 0 1 .012 0 .5.5 0 0 1 .5.5.5.5 0 0 1-.5.5.5.5 0 0 1-.5-.5.5.5 0 0 1 .488-.5zM7.5 2A1.5 1.5 0 0 0 6 3.5 1.5 1.5 0 0 0 7.5 5 1.5 1.5 0 0 0 9 3.5 1.5 1.5 0 0 0 7.5 2zm-.012 1A.5.5 0 0 1 7.5 3a.5.5 0 0 1 .5.5.5.5 0 0 1-.5.5.5.5 0 0 1-.5-.5.5.5 0 0 1 .488-.5z"/><path d="M7 4v3H5a2 2 0 0 0-.049 0A2 2 0 0 0 3 9v3h1V9a1 1 0 0 1 1-1h5a1 1 0 0 1 1 1v3h1V9a2 2 0 0 0-1.951-2A2 2 0 0 0 10 7H8V4z"/></g></svg>
